X:189
T:Trip to Winchcomb, A
M:2/4
L:1/8
B:Thompson's Compleat Collection of 200 Favourite Country Dances, vol. 3 (London, 1773)
Z:Transcribed and edited by Flynn Titford-Mock, 2007
Z:abc's:AK/Fiddler's Companion
K:G
G2 DG | BGDG | A2 DA | cAFA | G2 DG | BGEG | AcAF | G2 [G,2G2] :|
|: gage | dBAG | gfga | bgfe | gage | dBAG | AcAF | G2 [G,2G2] :|

